Papirus/24x24/panel/skype-status-connecting-1.svg

<?xml version="1.0" encoding="UTF-8" standalone="no"?>
<svg xmlns:dc="http://purl.org/dc/elements/1.1/" xmlns:cc="http://creativecommons.org/ns#" xmlns:rdf="http://www.w3.org/1999/02/22-rdf-syntax-ns#" xmlns:svg="http://www.w3.org/2000/svg" xmlns="http://www.w3.org/2000/svg" version="1.0" width="24" height="24" id="svg2817">
    <metadata id="metadata57">
        <rdf:RDF>
            <cc:Work rdf:about="">
                <dc:format>
                    image/svg+xml
                </dc:format>
                <dc:type rdf:resource="http://purl.org/dc/dcmitype/StillImage"/>
                <dc:title/>
            </cc:Work>
        </rdf:RDF>
    </metadata>
    <path id="path4554" d="M 8,4 A 4,4 0 0 0 4,8 4,4 0 0 0 5.1152344,10.769531 7,7 0 0 0 5,12 7,7 0 0 0 12,19 7,7 0 0 0 13.238281,18.886719 4,4 0 0 0 16,20 4,4 0 0 0 20,16 4,4 0 0 0 18.884766,13.230469 7,7 0 0 0 19,12 7,7 0 0 0 12,5 7,7 0 0 0 10.761719,5.1132812 4,4 0 0 0 8,4 Z m 4,2.0898438 0,1 a 5,5 0 0 1 4.996094,4.9062502 1,1 0 0 1 0.0039,0.09375 1,1 0 0 1 -1,1 1,1 0 0 1 -1,-1 3,3 0 0 0 -3,-3 l 0,1 -3,-2.0000002 3,-2 z M 8,11.089844 a 1,1 0 0 1 1,1 3,3 0 0 0 3,3 l 0,-1 3,2 -3,2 0,-1 A 5,5 0 0 1 7.0039062,12.183594 1,1 0 0 1 7,12.089844 a 1,1 0 0 1 1,-1 z" style="opacity:1;fill:#ffffff;fill-opacity:1;stroke:none;stroke-width:2;stroke-linecap:round;stroke-linejoin:round;stroke-miterlimit:4;stroke-dasharray:none;stroke-opacity:1"/>
    <path style="fill:#2d9cf2" d="M -22.069,-4.0812" id="path53"/>
</svg>

<?xml version="1.0" encoding="UTF-8" standalone="no"?>
<svg id="svg2817" xmlns:rdf="http://www.w3.org/1999/02/22-rdf-syntax-ns#" xmlns="http://www.w3.org/2000/svg" height="24" width="24" version="1.0" xmlns:cc="http://creativecommons.org/ns#" xmlns:dc="http://purl.org/dc/elements/1.1/">
 <metadata id="metadata57">
  <rdf:RDF>
   <cc:Work rdf:about="">
    <dc:format>image/svg+xml</dc:format>
    <dc:type rdf:resource="http://purl.org/dc/dcmitype/StillImage"/>
    <dc:title/>
   </cc:Work>
  </rdf:RDF>
 </metadata>
 <path id="path4554" d="m8 4a4 4 0 0 0 -4 4 4 4 0 0 0 1.1152 2.77 7 7 0 0 0 -0.1152 1.23 7 7 0 0 0 7 7 7 7 0 0 0 1.238 -0.113 4 4 0 0 0 2.762 1.113 4 4 0 0 0 4 -4 4 4 0 0 0 -1.115 -2.77 7 7 0 0 0 0.115 -1.23 7 7 0 0 0 -7 -7 7 7 0 0 0 -1.238 0.1133 4 4 0 0 0 -2.762 -1.1133zm4 2.0898v1a5 5 0 0 1 4.9961 4.9063 1 1 0 0 1 0.0039 0.09375 1 1 0 0 1 -1 1 1 1 0 0 1 -1 -1 3 3 0 0 0 -3 -3v1l-3-2 3-2zm-4 5.0002a1 1 0 0 1 1 1 3 3 0 0 0 3 3v-1l3 2-3 2v-1a5 5 0 0 1 -4.9961 -4.906 1 1 0 0 1 -0.0039 -0.094 1 1 0 0 1 1 -1z" fill="#fff"/>
 <path id="path53" fill="#2d9cf2" d="m-22.069-4.0812"/>
</svg>
